assets/img/telegram.svg

<svg width="24" height="24" viewBox="0 0 24 24" fill="none" xmlns="http://www.w3.org/2000/svg">
<g clip-path="url(#clip0_407_41410)">
<path d="M12 0C18.6274 0 24 5.37258 24 12C24 18.6274 18.6274 24 12 24C5.37258 24 0 18.6274 0 12C0 5.37258 5.37258 0 12 0ZM17.3298 7.2C16.8727 7.20811 16.1713 7.44889 12.7958 8.835C11.6136 9.32046 9.25077 10.3253 5.70743 11.8494C5.13205 12.0753 4.83064 12.2963 4.8032 12.5124C4.75052 12.9272 5.3555 13.0564 6.11668 13.3007C6.73728 13.4998 7.5721 13.7328 8.00608 13.7421C8.39975 13.7505 8.83912 13.5902 9.32421 13.2614C12.6349 11.0551 14.3438 9.93987 14.4511 9.91583C14.5268 9.89887 14.6317 9.87754 14.7028 9.93991C14.7739 10.0023 14.7669 10.1204 14.7593 10.1521C14.6992 10.4054 11.5892 13.1981 11.4102 13.3817L11.3244 13.468C10.6649 14.1193 9.99835 14.5446 11.1484 15.2928C12.1868 15.9684 12.7912 16.3994 13.8609 17.0917C14.5446 17.5341 15.0806 18.0588 15.7864 17.9946C16.1112 17.9651 16.4467 17.6636 16.6171 16.7644C17.0197 14.6392 17.8112 10.0345 17.9941 8.13705C18.0102 7.9708 17.99 7.75805 17.9738 7.66465C17.9576 7.57125 17.9238 7.43818 17.8008 7.33968C17.6552 7.22301 17.4304 7.19841 17.3298 7.2Z" fill="white"/>
</g>
<defs>
<clipPath id="clip0_407_41410">
<rect width="24" height="24" fill="white"/>
</clipPath>
</defs>
</svg>

<?xml version="1.0" encoding="utf-8"?>
<!-- Generator: Adobe Illustrator 21.0.1, SVG Export Plug-In . SVG Version: 6.00 Build 0)  -->
<svg version="1.1" id="Слой_1" xmlns="http://www.w3.org/2000/svg" xmlns:xlink="http://www.w3.org/1999/xlink" x="0px" y="0px"
	 viewBox="0 0 24 24" style="enable-background:new 0 0 24 24;" xml:space="preserve">
<style type="text/css">
	.st0{clip-path:url(#SVGID_2_);}
	.st1{fill:#31A7E4;}
</style>
<g>
	<defs>
		<rect id="SVGID_1_" y="0" width="24" height="24"/>
	</defs>
	<clipPath id="SVGID_2_">
		<use xlink:href="#SVGID_1_"  style="overflow:visible;"/>
	</clipPath>
	<g class="st0">
		<path class="st1" d="M12,0c6.6,0,12,5.4,12,12c0,6.6-5.4,12-12,12C5.4,24,0,18.6,0,12C0,5.4,5.4,0,12,0z M17.3,7.2
			c-0.5,0-1.2,0.2-4.5,1.6c-1.2,0.5-3.5,1.5-7.1,3c-0.6,0.2-0.9,0.4-0.9,0.7c-0.1,0.4,0.6,0.5,1.3,0.8c0.6,0.2,1.5,0.4,1.9,0.4
			c0.4,0,0.8-0.2,1.3-0.5c3.3-2.2,5-3.3,5.1-3.3c0.1,0,0.2,0,0.3,0c0.1,0.1,0.1,0.2,0.1,0.2c-0.1,0.3-3.2,3-3.3,3.2l-0.1,0.1
			c-0.7,0.7-1.3,1.1-0.2,1.8c1,0.7,1.6,1.1,2.7,1.8c0.7,0.4,1.2,1,1.9,0.9c0.3,0,0.7-0.3,0.8-1.2C17,14.6,17.8,10,18,8.1
			c0-0.2,0-0.4,0-0.5c0-0.1-0.1-0.2-0.2-0.3C17.7,7.2,17.4,7.2,17.3,7.2z"/>
	</g>
</g>
</svg>
